packages/icons/svg/24/ReadHorizontalLeft.svg

<svg width="24" height="24" viewBox="0 0 24 24" fill="none" xmlns="http://www.w3.org/2000/svg">
<path d="M10.7071 9.70711C11.0976 9.31658 11.0976 8.68342 10.7071 8.29289C10.3166 7.90237 9.68342 7.90237 9.29289 8.29289L6.29289 11.2929C6.19702 11.3888 6.12468 11.4993 6.07588 11.6172C6.02699 11.7351 6 11.8644 6 12C6 12.1351 6.02677 12.2638 6.0753 12.3814C6.09935 12.4398 6.12917 12.4963 6.16475 12.5502C6.20136 12.6057 6.24408 12.6583 6.29289 12.7071L9.29289 15.7071C9.68342 16.0976 10.3166 16.0976 10.7071 15.7071C11.0976 15.3166 11.0976 14.6834 10.7071 14.2929L9.41421 13H17C17.5523 13 18 12.5523 18 12C18 11.4477 17.5523 11 17 11H9.41421L10.7071 9.70711Z" fill="#858585"/>
<path fill-rule="evenodd" clip-rule="evenodd" d="M17 3H7C4.79086 3 3 4.79086 3 7V17C3 19.2091 4.79086 21 7 21H17C19.2091 21 21 19.2091 21 17V7C21 4.79086 19.2091 3 17 3ZM5 7C5 5.89543 5.89543 5 7 5H17C18.1046 5 19 5.89543 19 7V17C19 18.1046 18.1046 19 17 19H7C5.89543 19 5 18.1046 5 17V7Z" fill="#858585"/>
</svg>

<svg width="24" height="24" fill="none" xmlns="http://www.w3.org/2000/svg" viewBox="0 0 24 24"><path d="M10.707 9.707a1 1 0 00-1.414-1.414l-3 3a.998.998 0 000 1.414l3 3a1 1 0 001.414-1.414L9.414 13H17a1 1 0 100-2H9.414l1.293-1.293z" fill="currentColor"></path><path fill-rule="evenodd" clip-rule="evenodd" d="M17 3H7a4 4 0 00-4 4v10a4 4 0 004 4h10a4 4 0 004-4V7a4 4 0 00-4-4zM5 7a2 2 0 012-2h10a2 2 0 012 2v10a2 2 0 01-2 2H7a2 2 0 01-2-2V7z" fill="currentColor"></path></svg>
